X:1
T: Bruce Miller's Reel
C:Donald McKay
R:Reel
Q: 232
K:D
M:4/4
L:1/8
|:A2|fz fg fe de|fz fg f2A2|fz fg fe dc|Bz Bd A2A2|
BA Bc dA GF|GA GF E2A2|dz ((3efg) fd ec|d2f2 d2A2|
K:A
AG AB =cB cd|ed ed ed BG|AG AB =cB cd|ed BG A2e2|
ag ag ae d=c|de d=c B2e2|AG AB =cB cd|ed BG A2:|
